X:3763
T:Lonesome Jig
O:england
R:double jig
M:6/8
L:1/8
K:C
E2D DCD|E2C C2C|E2D DEG|c2d ecG|
E2D DCD|E2C C2D|E2D DEG|AGA c3:|
GAc d2e|c2B A2G|GAc d2d|cAG A3|
GAc dec|GcA AGE|GED DEG|1 AGA c3:|2 c2d ecG||


